X:441
T: Erfreut euch, liebe Seelen (5-37), S. 62
N: P0711
O: Lothringen
S: MERKELBACH-PINCK, Angelika: Verklingende Weisen, Bd 5, Kassel 1962]
N: Melismen!
R: geistliches, religiöses Lied]
M: 4/4
L: 1/8
K: G
BA | G3FG2A2 | GABAA4
A2Bc | dcBAB2A2 | G6
BA | G3FG2A2 | GABAA4
A2Bc | dcBAB2A2 | G6
FG | A3GABcB | A4z2
FG | A3GABcB | A4z2
BA | G3FG2A2 | GABAA4
A2Bc | dcBAB2A2 | G6

